X:12
T:Ryan's
O:Trad. (29.11.2013/NS)
M:2/4
L:1/8
R:polka
K:Dmaj
|: "D"dd B/c/d/B/ | AF AF | dd B/c/d/B/ | AF ED |
dd B/c/d/B/ | AF Ad/e/ | "D"fd "A"ec | "D"d2 d2 :|
|: "D"fd de/f/ | "G"gf ed | "D"fd Ad | fd "A"a>g |
"D"fd de/f/ | "G"gf ed/e/ | "D"fd "A"ec |"D"d2 d2 :|
